webapp/src/assets/icons/cloudproviders/aws/architecture_services/elasticache.svg

<?xml version="1.0" encoding="UTF-8"?>
<svg width="24px" height="24px" viewBox="0 0 24 24" version="1.1" xmlns="http://www.w3.org/2000/svg" xmlns:xlink="http://www.w3.org/1999/xlink">
    <title>Icon-Architecture/16/Arch_Amazon-ElastiCache_16</title>
    <g id="Icon-Architecture/16/Arch_Amazon-ElastiCache_16" stroke="none" stroke-width="1" fill="none" fill-rule="evenodd">
        <path d="M10,13 L15,13 L15,11 L10,11 L10,13 Z M10,16 L15,16 L15,14 L10,14 L10,16 Z M10,19 L15,19 L15,17 L10,17 L10,19 Z M16,10.5 L16,19.5 C16,19.777 15.776,20 15.5,20 L9.5,20 C9.224,20 9,19.777 9,19.5 L9,10.5 C9,10.224 9.224,10 9.5,10 L15.5,10 C15.776,10 16,10.224 16,10.5 L16,10.5 Z M17,12 L18,12 L18,6.5 C18,6.224 17.776,6 17.5,6 L15.5,6 C15.224,6 15,6.224 15,6.5 L15,9 L16,9 L16,7 L17,7 L17,12 Z M14,9 L14,6.5 C14,6.224 13.776,6 13.5,6 L11.5,6 C11.224,6 11,6.224 11,6.5 L11,9 L12,9 L12,7 L13,7 L13,9 L14,9 Z M9,9 L10,9 L10,6.5 C10,6.224 9.776,6 9.5,6 L7.5,6 C7.224,6 7,6.224 7,6.5 L7,12 L8,12 L8,7 L9,7 L9,9 Z M20,4.5 L20,14.5 C20,14.777 19.776,15 19.5,15 L17,15 L17,14 L19,14 L19,5 L6,5 L6,14 L8,14 L8,15 L5.5,15 C5.224,15 5,14.777 5,14.5 L5,4.5 C5,4.224 5.224,4 5.5,4 L19.5,4 C19.776,4 20,4.224 20,4.5 L20,4.5 Z" id="Amazon-ElastiCache_Icon_16_Squid" fill="#C925D1"></path>
    </g>
</svg>

<svg width="24" height="24" xmlns="http://www.w3.org/2000/svg"><path d="M10 13h5v-2h-5v2Zm0 3h5v-2h-5v2Zm0 3h5v-2h-5v2Zm6-8.5v9a.5.5 0 0 1-.5.5h-6a.5.5 0 0 1-.5-.5v-9a.5.5 0 0 1 .5-.5h6a.5.5 0 0 1 .5.5Zm1 1.5h1V6.5a.5.5 0 0 0-.5-.5h-2a.5.5 0 0 0-.5.5V9h1V7h1v5Zm-3-3V6.5a.5.5 0 0 0-.5-.5h-2a.5.5 0 0 0-.5.5V9h1V7h1v2h1ZM9 9h1V6.5a.5.5 0 0 0-.5-.5h-2a.5.5 0 0 0-.5.5V12h1V7h1v2Zm11-4.5v10a.5.5 0 0 1-.5.5H17v-1h2V5H6v9h2v1H5.5a.5.5 0 0 1-.5-.5v-10a.5.5 0 0 1 .5-.5h14a.5.5 0 0 1 .5.5Z" fill="#C925D1" fill-rule="evenodd"/></svg>
